X: 33514
T: Rainbow's End, The
R: reel
M: 4/4
K: Gmajor
D2DE G2GE|DB,DE GABG|dBBA GABG|A2BG AGEG|
D2DE G2GE|DB,DE GABG|ABBA GFGA|1 BAGE EDB,E:|2 BAGE EDD2||
|:Bdde d2GA|BGAG EFG2|EAAG EFGA|B2AG EFGA|
Bdde d2GA|BGAG EFGA|B2BA GFGA|1 BAGE EDD2:|2 BAGE EDB,E||

